X: 768
T: Nao shengchan
%%abc-version 2.0
%%abcx-abcm2ps-target-version 5.9.1 (29 Sep 2008)
%%abc-creator hum2abc beta
%%abcx-conversion-date 2013/10/02 07:52:30
%%abc-edited-by Helmut Schaffrath
%%humdrum-veritas 4244222674
%%humdrum-veritas-data 3651116702
%%continueall 1
%%barnumbers 0
L: 1/8
M: 2/4
K: F
f dc2 [I:setbarnb 1]| 
c FG2 | 
f d c B | 
c FG2 | 
c c f d | 
c f c B | 
FB2G | 
F DC2 | 
f d c f | 
c BG2 | 
c B G D | 
C4 |]  



